packages/kaspersky-hexa-ui-icons/src/iconsSVGs/16/Filter.svg

<svg width="16" height="16" viewBox="0 0 16 16" fill="none" xmlns="http://www.w3.org/2000/svg">
<path fill-rule="evenodd" clip-rule="evenodd" d="M2.48915 4.32194C1.54078 2.93338 2.53515 1.05005 4.21667 1.05005H11.7833C13.4648 1.05005 14.4592 2.93338 13.5108 4.32193L10.0993 9.31685V12.8507C10.0993 14.0101 9.15943 14.95 8 14.95C6.84058 14.95 5.90068 14.0102 5.90068 12.8507V9.31689L2.48915 4.32194ZM4.21667 2.35005C3.58007 2.35005 3.20362 3.06305 3.56266 3.58874L7.08744 8.7495C7.16121 8.85752 7.20068 8.98529 7.20068 9.1161V12.8507C7.20068 13.2922 7.55855 13.65 8 13.65C8.44146 13.65 8.79932 13.2922 8.79932 12.8507V9.11606C8.79932 8.98525 8.83879 8.85748 8.91257 8.74946L12.4373 3.58873C12.7964 3.06305 12.4199 2.35005 11.7833 2.35005H4.21667Z" fill="black"/>
</svg>

<svg xmlns="http://www.w3.org/2000/svg" width="16" height="16" fill="none" viewBox="0 0 16 16"><path fill="#000" fill-rule="evenodd" d="M2.4892 4.322c-.9484-1.3886.046-3.272 1.7275-3.272h7.5666c1.6815 0 2.6759 1.8834 1.7275 3.272l-3.4115 4.9949v3.5338c0 1.1594-.9399 2.0993-2.0993 2.0993s-2.0993-.9398-2.0993-2.0993V9.3169zM4.2166 2.35c-.6366 0-1.013.713-.654 1.2387l3.5247 5.1608a.65.65 0 0 1 .1133.3666v3.7346c0 .4415.3579.7993.7993.7993a.7993.7993 0 0 0 .7993-.7993V9.1161a.65.65 0 0 1 .1133-.3666l3.5247-5.1608c.3591-.5256-.0174-1.2386-.654-1.2386z"/></svg>
